packages/bezier-icons/icons/hexahedron.svg

<svg width="24" height="24" viewBox="0 0 24 24" fill="none" xmlns="http://www.w3.org/2000/svg">
<path fill-rule="evenodd" clip-rule="evenodd" d="M13 2.57735C12.3812 2.22009 11.6188 2.22009 11 2.57735L4 6.6188C3.3812 6.97607 3 7.63632 3 8.35085V16.4338C3 17.1483 3.3812 17.8085 4 18.1658L11 22.2073C11.6188 22.5645 12.3812 22.5645 13 22.2073L20 18.1658C20.6188 17.8085 21 17.1483 21 16.4338V8.35085C21 7.63632 20.6188 6.97607 20 6.6188L13 2.57735ZM5.6958 7.82154L12 4.18181L18.3042 7.82154L12 11.4465L5.6958 7.82154ZM4.88951 9.66498V16.4975L11.0002 20.0255V13.1786L4.88951 9.66498ZM13.0002 20.0253L19.1105 16.4975V9.66498L13.0002 13.1784V20.0253Z" fill="#313234"/>
</svg>

<svg xmlns="http://www.w3.org/2000/svg" width="24" height="24" fill="none" viewBox="0 0 24 24"><path fill="#313234" fill-rule="evenodd" d="M13 2.577a2 2 0 0 0-2 0L4 6.62A2 2 0 0 0 3 8.35v8.083a2 2 0 0 0 1 1.732l7 4.041a2 2 0 0 0 2 0l7-4.041a2 2 0 0 0 1-1.732V8.35a2 2 0 0 0-1-1.732zM5.696 7.822 12 4.182l6.304 3.64L12 11.447zM4.89 9.665v6.833L11 20.025v-6.847zM13 20.025l6.11-3.527V9.664L13 13.178z" clip-rule="evenodd"/></svg>
